X: 38
T:Gan Ainm
R:Reel
S:Sharon Shannon, Clare (accordian)
D:Session tape, Doolin 1987
M:4/4
Z:Bernie Stocks
K:A
A2EA CAEA | ABcA GABG | (3.A.A.AAB cABc |1 dfed cABc :|2 dfed cAA2 ||
e3f eA(3.A.A.A | eAce dcBf | eA(3.A.A.A fA(3.A.A.A | (3.e.e.e ed cBAf |
e3f eAcf | eAce dcBc | d2(3.d.d.d dcBA | Gfed cABc || A4
<end>
<start>
